poi/svg/1702.svg

<?xml version="1.0" encoding="UTF-8" standalone="no"?>
<svg
   xmlns:dc="http://purl.org/dc/elements/1.1/"
   xmlns:cc="http://creativecommons.org/ns#"
   xmlns:rdf="http://www.w3.org/1999/02/22-rdf-syntax-ns#"
   xmlns:svg="http://www.w3.org/2000/svg"
   xmlns="http://www.w3.org/2000/svg"
   xmlns:sodipodi="http://sodipodi.sourceforge.net/DTD/sodipodi-0.dtd"
   xmlns:inkscape="http://www.inkscape.org/namespaces/inkscape"
   inkscape:version="1.0 (4035a4fb49, 2020-05-01)"
   sodipodi:docname="1702.svg"
   id="svg20"
   version="1.2"
   viewBox="0 0 42.519639 42.519639"
   height="14.999999mm"
   width="14.999999mm">
  <metadata
     id="metadata24">
    <rdf:RDF>
      <cc:Work
         rdf:about="">
        <dc:format>image/svg+xml</dc:format>
        <dc:type
           rdf:resource="http://purl.org/dc/dcmitype/StillImage" />
        <dc:title>Qt SVG Document</dc:title>
      </cc:Work>
    </rdf:RDF>
  </metadata>
  <sodipodi:namedview
     inkscape:current-layer="svg20"
     inkscape:window-maximized="0"
     inkscape:window-y="0"
     inkscape:window-x="0"
     inkscape:cy="28.346482"
     inkscape:cx="28.346482"
     inkscape:zoom="5.8410537"
     showgrid="false"
     id="namedview22"
     inkscape:window-height="480"
     inkscape:window-width="1034"
     inkscape:pageshadow="2"
     inkscape:pageopacity="0"
     guidetolerance="10"
     gridtolerance="10"
     objecttolerance="10"
     borderopacity="1"
     bordercolor="#666666"
     pagecolor="#ffffff" />
  <title
     id="title2">Qt SVG Document</title>
  <desc
     id="desc4">Generated with Qt</desc>
  <defs
     id="defs6" />
  <g
     transform="translate(5.25984,5.25984)"
     id="g18"
     stroke-linejoin="bevel"
     stroke-linecap="square"
     fill-rule="evenodd"
     stroke-width="1"
     stroke="#000000"
     fill="none">
    <g
       id="g10"
       font-style="normal"
       font-weight="400"
       font-size="7.8px"
       font-family="'MS Shell Dlg 2'"
       stroke="none"
       fill-opacity="1"
       fill="#66b1e3">
      <path
         id="path8"
         d="M 37.2598,16 C 37.2598,27.7415 27.7415,37.2598 16,37.2598 4.25851,37.2598 -5.25984,27.7415 -5.25984,16 -5.25984,4.25851 4.25851,-5.25984 16,-5.25984 27.7415,-5.25984 37.2598,4.25851 37.2598,16"
         fill-rule="evenodd"
         vector-effect="non-scaling-stroke" />
    </g>
    <g
       id="g14"
       font-style="normal"
       font-weight="400"
       font-size="7.8px"
       font-family="'MS Shell Dlg 2'"
       transform="translate(16,13.1654)"
       stroke="none"
       fill-opacity="0.94902"
       fill="#ffffff">
      <path
         id="path12"
         d="M 1.77588,1.56934 C 1.34196,1.19141 0.894043,1.19141 0.432129,1.56934 0.292155,1.70931 0.152181,1.7793 0.012207,1.7793 c -0.1119791,0 -0.244954,-0.06999 -0.398926,-0.20996 -0.475911,-0.40593 -0.930831,-0.40593 -1.364741,0 -0.32194,0.32194 -0.60889,0.32194 -0.86084,0 -0.26596,-0.16797 -0.49691,-0.25196 -0.69288,-0.25196 -0.25195,0 -0.46891,0.08399 -0.65087,0.25196 -0.30795,0.32194 -0.60889,0.32194 -0.90284,0 -0.41992,-0.37793 -0.86084,-0.37793 -1.32275,0 l 1.72168,11.98876 c 0.25195,0.182 0.62288,0.3429 1.11279,0.4829 0.16797,0.056 0.36743,0.105 0.59839,0.147 0.23096,0.042 0.49341,0.091 0.78735,0.147 0.53191,0.0839 1.20378,0.1259 2.0156292,0.1259 0.7418618,0 1.3997408,-0.042 1.9736308,-0.1259 0.27995,-0.056 0.5354,-0.105 0.76636,-0.147 0.23096,-0.042 0.43742,-0.091 0.61938,-0.147 0.44792,-0.112 0.80485,-0.2729 1.07081,-0.4829 L 6.24805,1.56934 c -0.46192,-0.37793 -0.92383,-0.37793 -1.38575,0 -0.30794,0.32194 -0.59488,0.32194 -0.86084,0 C 3.77751,1.40137 3.56055,1.31738 3.35059,1.31738 c -0.25196,0 -0.47592,0.08399 -0.67188,0.25196 -0.32194,0.32194 -0.62288,0.32194 -0.90283,0 m -9.84717,-5.62696 c 0.36393,0.19597 0.86084,0.37793 1.49072,0.5459 l 1.99463,0.39893 c 0.71387,0.11198 1.46973,0.19596 2.26758,0.25195 0.40593,0.02799 0.80135,0.04199 1.18628,0.04199 0.384928,0 0.780355,0 1.1862792,0 0.3919268,0 0.7768558,0 1.1547808,0 0.37793,0 0.76286,-0.014 1.15479,-0.04199 0.81185,-0.05599 1.57471,-0.13997 2.28857,-0.25195 L 6.58398,-3.51172 C 6.90592,-3.6237 7.19287,-3.72168 7.44482,-3.80566 7.69678,-3.88965 7.92773,-3.97363 8.1377,-4.05762 L 5.11426,15.5107 c 0,0.14 -0.13998,0.266 -0.41992,0.378 -0.19597,0.112 -0.5669,0.2099 -1.1128,0.2939 -0.23795,0.028 -0.49341,0.056 -0.76635,0.084 -0.27295,0.028 -0.5634,0.056 -0.87134,0.084 -0.32194,0.042 -0.64038,0.07 -0.955325,0.084 -0.314941,0.014 -0.626383,0.021 -0.9343258,0.021 -0.3499352,0 -0.6823732,-0.007 -0.9973142,-0.021 -0.314945,-0.014 -0.626385,-0.042 -0.934325,-0.084 -0.32194,-0.028 -0.61939,-0.056 -0.89234,-0.084 -0.27294,-0.028 -0.5214,-0.056 -0.74536,-0.084 -0.60188,-0.084 -0.98681,-0.1819 -1.15478,-0.2939 -0.29395,-0.112 -0.44092,-0.238 -0.44092,-0.378 L -8.07129,-4.05762 m 8.1254892,-3.44336 c 1.1197908,0 2.1905908,0.042 3.2124008,0.12598 0.48991,0.05599 0.95182,0.11198 1.38574,0.16797 0.43392,0.05599 0.84685,0.11198 1.23877,0.16797 0.34994,0.05599 0.67538,0.12247 0.97632,0.19946 0.30095,0.07699 0.5634,0.17147 0.78736,0.28345 0.43391,0.16797 0.65087,0.35693 0.65087,0.56689 v 0.08399 0.04199 c -0.13997,0.13997 -0.39892,0.29394 -0.77685,0.46191 -0.40593,0.16797 -0.96582,0.34294 -1.67969,0.52491 -0.33594,0.08398 -0.71387,0.15397 -1.13379,0.20996 -0.41992,0.05599 -0.87484,0.11198 -1.36474,0.16796 -0.47592,0.05599 -0.98682,0.09799 -1.53272,0.12598 -0.5459,0.028 -1.133788,0.04199 -1.7636708,0.04199 -0.6298832,0 -1.2247692,-0.01399 -1.7846692,-0.04199 -0.55989,-0.02799 -1.0848,-0.06999 -1.57471,-0.12598 -0.4899,-0.05598 -0.94832,-0.11197 -1.37524,-0.16796 -0.42692,-0.05599 -0.81535,-0.12598 -1.16528,-0.20996 -0.65788,-0.13998 -1.20378,-0.31495 -1.6377,-0.52491 -0.41992,-0.16797 -0.67187,-0.32194 -0.75586,-0.46191 v -0.04199 -0.08399 c 0,-0.20996 0.20996,-0.39892 0.62988,-0.56689 0.23796,-0.11198 0.50741,-0.20646 0.80835,-0.28345 0.30095,-0.07699 0.61939,-0.14347 0.95533,-0.19946 0.37793,-0.05599 0.78735,-0.11198 1.22827,-0.16797 0.44092,-0.05599 0.90633,-0.11198 1.39624,-0.16797 1.03581,-0.08398 2.1276,-0.12598 3.2753892,-0.12598"
         fill-rule="evenodd"
         vector-effect="none" />
    </g>
    <g
       id="g16"
       font-style="normal"
       font-weight="400"
       font-size="7.8px"
       font-family="'MS Shell Dlg 2'"
       stroke="none"
       fill-opacity="1"
       fill="#66b1e3" />
  </g>
</svg>

<?xml version="1.0" encoding="UTF-8" standalone="no"?>
<svg width="11.2889mm" height="11.2889mm"
 viewBox="0 0 32 32"
 xmlns="http://www.w3.org/2000/svg" xmlns:xlink="http://www.w3.org/1999/xlink"  version="1.2" baseProfile="tiny">
<title>Qt SVG Document</title>
<desc>Generated with Qt</desc>
<defs>
</defs>
<g fill="none" stroke="black" stroke-width="1" fill-rule="evenodd" stroke-linecap="square" stroke-linejoin="bevel" >

<g fill="#66b1e3" fill-opacity="1" stroke="none" transform="matrix(1,0,0,1,0,0)"
font-family="MS Shell Dlg 2" font-size="7.8" font-weight="400" font-style="normal" 
>
<path vector-effect="non-scaling-stroke" fill-rule="evenodd" d="M37.2598,16 C37.2598,27.7415 27.7415,37.2598 16,37.2598 C4.25851,37.2598 -5.25984,27.7415 -5.25984,16 C-5.25984,4.25851 4.25851,-5.25984 16,-5.25984 C27.7415,-5.25984 37.2598,4.25851 37.2598,16 "/>
</g>

<g fill="#ffffff" fill-opacity="0.94902" stroke="none" transform="matrix(1,0,0,1,16,13.1654)"
font-family="MS Shell Dlg 2" font-size="7.8" font-weight="400" font-style="normal" 
>
<path vector-effect="none" fill-rule="evenodd" d="M1.77588,1.56934 C1.34196,1.19141 0.894043,1.19141 0.432129,1.56934 C0.292155,1.70931 0.152181,1.7793 0.012207,1.7793 C-0.0997721,1.7793 -0.232747,1.70931 -0.386719,1.56934 C-0.86263,1.16341 -1.31755,1.16341 -1.75146,1.56934 C-2.0734,1.89128 -2.36035,1.89128 -2.6123,1.56934 C-2.87826,1.40137 -3.10921,1.31738 -3.30518,1.31738 C-3.55713,1.31738 -3.77409,1.40137 -3.95605,1.56934 C-4.264,1.89128 -4.56494,1.89128 -4.85889,1.56934 C-5.27881,1.19141 -5.71973,1.19141 -6.18164,1.56934 L-4.45996,13.5581 C-4.20801,13.7401 -3.83708,13.901 -3.34717,14.041 C-3.1792,14.097 -2.97974,14.146 -2.74878,14.188 C-2.51782,14.23 -2.25537,14.279 -1.96143,14.335 C-1.42952,14.4189 -0.75765,14.4609 0.0541992,14.4609 C0.796061,14.4609 1.45394,14.4189 2.02783,14.335 C2.30778,14.279 2.56323,14.23 2.79419,14.188 C3.02515,14.146 3.23161,14.097 3.41357,14.041 C3.86149,13.929 4.21842,13.7681 4.48438,13.5581 L6.24805,1.56934 C5.78613,1.19141 5.32422,1.19141 4.8623,1.56934 C4.55436,1.89128 4.26742,1.89128 4.00146,1.56934 C3.77751,1.40137 3.56055,1.31738 3.35059,1.31738 C3.09863,1.31738 2.87467,1.40137 2.67871,1.56934 C2.35677,1.89128 2.05583,1.89128 1.77588,1.56934 M-8.07129,-4.05762 C-7.70736,-3.86165 -7.21045,-3.67969 -6.58057,-3.51172 L-4.58594,-3.11279 C-3.87207,-3.00081 -3.11621,-2.91683 -2.31836,-2.86084 C-1.91243,-2.83285 -1.51701,-2.81885 -1.13208,-2.81885 C-0.747152,-2.81885 -0.351725,-2.81885 0.0541992,-2.81885 C0.446126,-2.81885 0.831055,-2.81885 1.20898,-2.81885 C1.58691,-2.81885 1.97184,-2.83285 2.36377,-2.86084 C3.17562,-2.91683 3.93848,-3.00081 4.65234,-3.11279 L6.58398,-3.51172 C6.90592,-3.6237 7.19287,-3.72168 7.44482,-3.80566 C7.69678,-3.88965 7.92773,-3.97363 8.1377,-4.05762 L5.11426,15.5107 C5.11426,15.6507 4.97428,15.7767 4.69434,15.8887 C4.49837,16.0007 4.12744,16.0986 3.58154,16.1826 C3.34359,16.2106 3.08813,16.2386 2.81519,16.2666 C2.54224,16.2946 2.25179,16.3226 1.94385,16.3506 C1.62191,16.3926 1.30347,16.4206 0.988525,16.4346 C0.673584,16.4486 0.362142,16.4556 0.0541992,16.4556 C-0.295736,16.4556 -0.628174,16.4486 -0.943115,16.4346 C-1.25806,16.4206 -1.5695,16.3926 -1.87744,16.3506 C-2.19938,16.3226 -2.49683,16.2946 -2.76978,16.2666 C-3.04272,16.2386 -3.29118,16.2106 -3.51514,16.1826 C-4.11702,16.0986 -4.50195,16.0007 -4.66992,15.8887 C-4.96387,15.7767 -5.11084,15.6507 -5.11084,15.5107 L-8.07129,-4.05762 M0.0541992,-7.50098 C1.17399,-7.50098 2.24479,-7.45898 3.2666,-7.375 C3.75651,-7.31901 4.21842,-7.26302 4.65234,-7.20703 C5.08626,-7.15104 5.49919,-7.09505 5.89111,-7.03906 C6.24105,-6.98307 6.56649,-6.91659 6.86743,-6.8396 C7.16838,-6.76261 7.43083,-6.66813 7.65479,-6.55615 C8.0887,-6.38818 8.30566,-6.19922 8.30566,-5.98926 L8.30566,-5.90527 L8.30566,-5.86328 C8.16569,-5.72331 7.90674,-5.56934 7.52881,-5.40137 C7.12288,-5.2334 6.56299,-5.05843 5.84912,-4.87646 C5.51318,-4.79248 5.13525,-4.72249 4.71533,-4.6665 C4.29541,-4.61051 3.84049,-4.55452 3.35059,-4.49854 C2.87467,-4.44255 2.36377,-4.40055 1.81787,-4.37256 C1.27197,-4.34456 0.684082,-4.33057 0.0541992,-4.33057 C-0.575684,-4.33057 -1.17057,-4.34456 -1.73047,-4.37256 C-2.29036,-4.40055 -2.81527,-4.44255 -3.30518,-4.49854 C-3.79508,-4.55452 -4.2535,-4.61051 -4.68042,-4.6665 C-5.10734,-4.72249 -5.49577,-4.79248 -5.8457,-4.87646 C-6.50358,-5.01644 -7.04948,-5.19141 -7.4834,-5.40137 C-7.90332,-5.56934 -8.15527,-5.72331 -8.23926,-5.86328 L-8.23926,-5.90527 L-8.23926,-5.98926 C-8.23926,-6.19922 -8.0293,-6.38818 -7.60938,-6.55615 C-7.37142,-6.66813 -7.10197,-6.76261 -6.80103,-6.8396 C-6.50008,-6.91659 -6.18164,-6.98307 -5.8457,-7.03906 C-5.46777,-7.09505 -5.05835,-7.15104 -4.61743,-7.20703 C-4.17651,-7.26302 -3.7111,-7.31901 -3.22119,-7.375 C-2.18538,-7.45898 -1.09359,-7.50098 0.0541992,-7.50098 "/>
</g>

<g fill="#66b1e3" fill-opacity="1" stroke="none" transform="matrix(1,0,0,1,0,0)"
font-family="MS Shell Dlg 2" font-size="7.8" font-weight="400" font-style="normal" 
>
</g>
</g>
</svg>
